packages/devextreme-scss/images/icons/fluent/checkmarkcircle.svg

<svg width="21" height="20" viewBox="0 0 21 20" fill="none" xmlns="http://www.w3.org/2000/svg">
<title>checkmarkcircle</title>
<path d="M10.3994 2C14.8177 2 18.3994 5.58172 18.3994 10C18.3994 14.4183 14.8177 18 10.3994 18C5.98114 18 2.39941 14.4183 2.39941 10C2.39941 5.58172 5.98114 2 10.3994 2ZM10.3994 3C6.53342 3 3.39941 6.13401 3.39941 10C3.39941 13.866 6.53342 17 10.3994 17C14.2654 17 17.3994 13.866 17.3994 10C17.3994 6.13401 14.2654 3 10.3994 3ZM13.7578 7.64645C13.9314 7.82001 13.9507 8.08944 13.8157 8.28431L13.7578 8.35355L9.75297 12.3584C9.5794 12.532 9.30998 12.5513 9.11511 12.4163L9.04586 12.3584L7.04586 10.3584C6.8506 10.1632 6.8506 9.84658 7.04586 9.65131C7.21943 9.47775 7.48885 9.45846 7.68372 9.59346L7.75297 9.65131L9.39941 11.298L13.0507 7.64645C13.246 7.45118 13.5626 7.45118 13.7578 7.64645Z" fill="#242424"/>
</svg>

<!-- Generated by IcoMoon.io -->
<svg version="1.1" xmlns="http://www.w3.org/2000/svg" width="20" height="20" viewBox="0 0 20 20">
<path d="M10.399 2c4.418 0 8 3.582 8 8s-3.582 8-8 8c-4.418 0-8-3.582-8-8s3.582-8 8-8zM10.399 3c-3.866 0-7 3.134-7 7s3.134 7 7 7c3.866 0 7-3.134 7-7s-3.134-7-7-7zM13.758 7.646c0.174 0.174 0.193 0.443 0.058 0.638l-0.058 0.069-4.005 4.005c-0.174 0.174-0.443 0.193-0.638 0.058l-0.069-0.058-2-2c-0.195-0.195-0.195-0.512 0-0.707 0.174-0.174 0.443-0.193 0.638-0.058l0.069 0.058 1.646 1.647 3.651-3.652c0.195-0.195 0.512-0.195 0.707 0z"></path>
</svg>
